svg/color/dknight.svg

<?xml version="1.0" encoding="UTF-8" ?>
<!DOCTYPE svg PUBLIC "-//W3C//DTD SVG 1.1//EN" "http://www.w3.org/Graphics/SVG/1.1/DTD/svg11.dtd">
<svg width="250pt" height="250pt" viewBox="0 0 250 250" version="1.1" xmlns="http://www.w3.org/2000/svg">
<g id="#ffffffff">
<path fill="#ffffff" opacity="1.00" d=" M 0.00 0.00 L 121.19 0.00 C 92.79 0.90 64.77 11.72 43.32 30.39 C 16.99 52.84 0.98 86.71 0.00 121.27 L 0.00 0.00 Z" />
<path fill="#ffffff" opacity="1.00" d=" M 129.65 0.00 L 250.00 0.00 L 250.00 120.51 C 248.75 86.21 232.82 52.66 206.66 30.38 C 185.43 11.88 157.75 1.14 129.65 0.00 Z" />
<path fill="#ffffff" opacity="1.00" d=" M 102.52 114.28 C 102.84 114.52 103.47 115.00 103.79 115.24 C 106.15 116.19 108.54 117.06 110.94 117.89 C 109.63 118.34 108.33 118.84 107.04 119.35 C 106.01 119.07 104.98 118.77 103.97 118.46 C 103.57 117.03 103.00 115.67 102.52 114.28 Z" />
<path fill="#ffffff" opacity="1.00" d=" M 139.11 117.89 C 142.03 117.05 144.93 116.03 147.57 114.49 C 146.96 115.79 146.44 117.13 146.08 118.52 C 143.77 119.80 141.22 119.24 139.11 117.89 Z" />
<path fill="#ffffff" opacity="1.00" d=" M 0.00 129.45 C 1.23 163.52 16.94 196.86 42.79 219.15 C 64.34 238.11 92.61 249.12 121.28 250.00 L 0.00 250.00 L 0.00 129.45 Z" />
<path fill="#ffffff" opacity="1.00" d=" M 219.59 206.70 C 238.10 185.46 248.84 157.77 250.00 129.66 L 250.00 250.00 L 129.69 250.00 C 163.90 248.68 197.35 232.79 219.59 206.70 Z" />
</g>
<g id="#000000ff">
<path fill="#000000" opacity="1.00" d=" M 121.19 0.00 L 129.65 0.00 C 157.75 1.14 185.43 11.88 206.66 30.38 C 232.82 52.66 248.75 86.21 250.00 120.51 L 250.00 129.66 C 248.84 157.77 238.10 185.46 219.59 206.70 C 197.35 232.79 163.90 248.68 129.69 250.00 L 121.28 250.00 C 92.61 249.12 64.34 238.11 42.79 219.15 C 16.94 196.86 1.23 163.52 0.00 129.45 L 0.00 121.27 C 0.98 86.71 16.99 52.84 43.32 30.39 C 64.77 11.72 92.79 0.90 121.19 0.00 M 180.28 43.70 C 181.20 49.31 182.22 55.31 179.71 60.69 C 176.73 67.62 169.18 71.02 162.16 72.30 C 152.89 60.78 139.55 52.09 125.01 49.24 C 110.64 52.56 97.47 61.00 88.23 72.48 C 81.36 71.02 73.86 68.09 70.61 61.38 C 67.67 55.75 68.83 49.27 69.67 43.29 C 66.42 47.42 65.64 52.98 65.35 58.09 C 64.91 69.31 71.41 79.62 79.94 86.41 C 77.44 93.41 75.56 100.64 74.85 108.06 C 72.70 124.74 70.28 141.43 69.66 158.26 C 79.72 162.33 88.66 169.26 94.78 178.26 C 99.26 184.45 101.73 191.73 103.90 198.96 C 107.89 201.55 112.02 203.93 116.22 206.15 C 114.55 179.74 113.51 153.30 111.73 126.90 C 105.08 125.63 98.23 122.46 94.69 116.41 C 92.51 112.81 92.30 108.49 92.62 104.41 C 100.53 107.48 108.50 110.36 116.35 113.58 C 117.05 123.15 118.38 132.66 118.93 142.23 C 122.96 144.17 127.45 144.25 131.53 142.37 C 132.60 132.75 133.32 123.09 134.42 113.47 C 142.33 110.44 150.20 107.33 158.16 104.45 C 158.42 108.88 157.99 113.60 155.39 117.35 C 151.63 122.85 145.16 125.74 138.79 126.95 C 137.42 153.36 135.85 179.76 134.55 206.16 C 138.79 203.87 142.89 201.33 147.04 198.88 C 150.68 180.92 163.63 165.03 180.81 158.41 C 180.69 142.35 178.04 126.44 176.14 110.52 C 175.22 102.20 173.70 93.88 170.46 86.12 C 176.21 81.30 181.04 75.13 183.30 67.90 C 185.54 60.79 184.90 52.98 182.18 46.10 C 181.88 45.03 181.24 44.23 180.28 43.70 M 102.52 114.28 C 103.00 115.67 103.57 117.03 103.97 118.46 C 104.98 118.77 106.01 119.07 107.04 119.35 C 108.33 118.84 109.63 118.34 110.94 117.89 C 108.54 117.06 106.15 116.19 103.79 115.24 C 103.47 115.00 102.84 114.52 102.52 114.28 M 139.11 117.89 C 141.22 119.24 143.77 119.80 146.08 118.52 C 146.44 117.13 146.96 115.79 147.57 114.49 C 144.93 116.03 142.03 117.05 139.11 117.89 Z" />
</g>
<g id="#ee2d37ff">
<path fill="#ee2d37" opacity="1.00" d=" M 180.28 43.70 C 181.24 44.23 181.88 45.03 182.18 46.10 C 184.90 52.98 185.54 60.79 183.30 67.90 C 181.04 75.13 176.21 81.30 170.46 86.12 C 173.70 93.88 175.22 102.20 176.14 110.52 C 178.04 126.44 180.69 142.35 180.81 158.41 C 163.63 165.03 150.68 180.92 147.04 198.88 C 142.89 201.33 138.79 203.87 134.55 206.16 C 135.85 179.76 137.42 153.36 138.79 126.95 C 145.16 125.74 151.63 122.85 155.39 117.35 C 157.99 113.60 158.42 108.88 158.16 104.45 C 150.20 107.33 142.33 110.44 134.42 113.47 C 133.32 123.09 132.60 132.75 131.53 142.37 C 127.45 144.25 122.96 144.17 118.93 142.23 C 118.38 132.66 117.05 123.15 116.35 113.58 C 108.50 110.36 100.53 107.48 92.62 104.41 C 92.30 108.49 92.51 112.81 94.69 116.41 C 98.23 122.46 105.08 125.63 111.73 126.90 C 113.51 153.30 114.55 179.74 116.22 206.15 C 112.02 203.93 107.89 201.55 103.90 198.96 C 101.73 191.73 99.26 184.45 94.78 178.26 C 88.66 169.26 79.72 162.33 69.66 158.26 C 70.28 141.43 72.70 124.74 74.85 108.06 C 75.56 100.64 77.44 93.41 79.94 86.41 C 71.41 79.62 64.91 69.31 65.35 58.09 C 65.64 52.98 66.42 47.42 69.67 43.29 C 68.83 49.27 67.67 55.75 70.61 61.38 C 73.86 68.09 81.36 71.02 88.23 72.48 C 97.47 61.00 110.64 52.56 125.01 49.24 C 139.55 52.09 152.89 60.78 162.16 72.30 C 169.18 71.02 176.73 67.62 179.71 60.69 C 182.22 55.31 181.20 49.31 180.28 43.70 Z" />
</g>
</svg>

<?xml version="1.0" encoding="utf-8"?>
<!-- Generator: Adobe Illustrator 26.0.3, SVG Export Plug-In . SVG Version: 6.00 Build 0)  -->
<svg version="1.1" id="Layer_1" xmlns="http://www.w3.org/2000/svg" xmlns:xlink="http://www.w3.org/1999/xlink" x="0px" y="0px"
	 viewBox="0 0 250 250" style="enable-background:new 0 0 250 250;" xml:space="preserve">
<style type="text/css">
	.st0{fill:#FFFFFF;}
	.st1{fill:#EE2D37;}
</style>
<g id="_x23_ffffffff">
	<path class="st0" d="M102.5,114.3c0.3,0.2,1,0.7,1.3,1c2.4,1,4.8,1.8,7.2,2.7c-1.3,0.4-2.6,0.9-3.9,1.5c-1-0.3-2.1-0.6-3.1-0.9
		C103.6,117,103,115.7,102.5,114.3z"/>
	<path class="st0" d="M139.1,117.9c2.9-0.8,5.8-1.9,8.5-3.4c-0.6,1.3-1.1,2.6-1.5,4C143.8,119.8,141.2,119.2,139.1,117.9z"/>
</g>
<g id="_x23_000000ff">
	<path d="M121.2,0h8.5c28.1,1.1,55.8,11.9,77,30.4c26.2,22.3,42.1,55.8,43.3,90.1v9.2c-1.2,28.1-11.9,55.8-30.4,77
		c-22.2,26.1-55.7,42-89.9,43.3h-8.4c-28.7-0.9-56.9-11.9-78.5-30.9C16.9,196.9,1.2,163.5,0,129.4v-8.2c1-34.6,17-68.4,43.3-90.9
		C64.8,11.7,92.8,0.9,121.2,0 M180.3,43.7c0.9,5.6,1.9,11.6-0.6,17c-3,6.9-10.5,10.3-17.6,11.6c-9.3-11.5-22.6-20.2-37.2-23.1
		C110.6,52.6,97.5,61,88.2,72.5c-6.9-1.5-14.4-4.4-17.6-11.1c-2.9-5.6-1.8-12.1-0.9-18.1c-3.2,4.1-4,9.7-4.3,14.8
		c-0.4,11.2,6.1,21.5,14.6,28.3c-2.5,7-4.4,14.2-5.1,21.6c-2.2,16.7-4.6,33.4-5.2,50.2c10.1,4.1,19,11,25.1,20
		c4.5,6.2,7,13.5,9.1,20.7c4,2.6,8.1,5,12.3,7.2c-1.7-26.4-2.7-52.8-4.5-79.2c-6.7-1.3-13.5-4.4-17-10.5c-2.2-3.6-2.4-7.9-2.1-12
		c7.9,3.1,15.9,5.9,23.7,9.2c0.7,9.6,2,19.1,2.6,28.6c4,1.9,8.5,2,12.6,0.1c1.1-9.6,1.8-19.3,2.9-28.9c7.9-3,15.8-6.1,23.7-9
		c0.3,4.4-0.2,9.2-2.8,12.9c-3.8,5.5-10.2,8.4-16.6,9.6c-1.4,26.4-2.9,52.8-4.2,79.2c4.2-2.3,8.3-4.8,12.5-7.3
		c3.6-18,16.6-33.9,33.8-40.5c-0.1-16.1-2.8-32-4.7-47.9c-0.9-8.3-2.4-16.6-5.7-24.4c5.8-4.8,10.6-11,12.8-18.2
		c2.2-7.1,1.6-14.9-1.1-21.8C181.9,45,181.2,44.2,180.3,43.7 M102.5,114.3c0.5,1.4,1.1,2.8,1.5,4.2c1,0.3,2,0.6,3.1,0.9
		c1.3-0.5,2.6-1,3.9-1.5c-2.4-0.8-4.8-1.7-7.2-2.7C103.5,115,102.8,114.5,102.5,114.3 M139.1,117.9c2.1,1.3,4.7,1.9,7,0.6
		c0.4-1.4,0.9-2.7,1.5-4C144.9,116,142,117.1,139.1,117.9z"/>
</g>
<g id="_x23_ee2d37ff">
	<path class="st1" d="M180.3,43.7c1,0.5,1.6,1.3,1.9,2.4c2.7,6.9,3.4,14.7,1.1,21.8c-2.3,7.2-7.1,13.4-12.8,18.2
		c3.2,7.8,4.8,16.1,5.7,24.4c1.9,15.9,4.6,31.8,4.7,47.9c-17.2,6.6-30.1,22.5-33.8,40.5c-4.1,2.4-8.2,5-12.5,7.3
		c1.3-26.4,2.9-52.8,4.2-79.2c6.4-1.2,12.8-4.1,16.6-9.6c2.6-3.8,3-8.5,2.8-12.9c-8,2.9-15.8,6-23.7,9c-1.1,9.6-1.8,19.3-2.9,28.9
		c-4.1,1.9-8.6,1.8-12.6-0.1c-0.6-9.6-1.9-19.1-2.6-28.6c-7.8-3.2-15.8-6.1-23.7-9.2c-0.3,4.1-0.1,8.4,2.1,12
		c3.5,6,10.4,9.2,17,10.5c1.8,26.4,2.8,52.8,4.5,79.2c-4.2-2.2-8.3-4.6-12.3-7.2c-2.2-7.2-4.6-14.5-9.1-20.7
		c-6.1-9-15.1-15.9-25.1-20c0.6-16.8,3-33.5,5.2-50.2c0.7-7.4,2.6-14.6,5.1-21.6c-8.5-6.8-15-17.1-14.6-28.3
		c0.3-5.1,1.1-10.7,4.3-14.8c-0.8,6-2,12.5,0.9,18.1c3.2,6.7,10.8,9.6,17.6,11.1C97.5,61,110.6,52.6,125,49.2
		c14.5,2.8,27.9,11.5,37.2,23.1c7-1.3,14.6-4.7,17.6-11.6C182.2,55.3,181.2,49.3,180.3,43.7z"/>
</g>
</svg>
